X: 181015
T: Redmoor
S: Darley & McCall Collection 
Z: B.Black 
L: 1/8
M: 6/8
R: jig
K: D
F3 F2F|F2d cAF|G3 G2G|G2B AFD|
F3 F2F|F2d cAF|G3 G2B|AFD D3|
FAF FAF|F2d cAF|GBG GBG|G2B AFD|
FAF FAF|F2d cAF|G3 GAB|AF D D3||
d2e f2g|a2g f2g|a2g f2d|e2A A3|
d2e f2g|a2g fed|c2A GAB|AFD D3 :|
